packages/ui-solid/icons/gallery_28.svg

<svg width="28" height="28" viewBox="0 0 28 28" fill="none" xmlns="http://www.w3.org/2000/svg">
<path fill-rule="evenodd" clip-rule="evenodd" d="M15.5984 2.01486H18.8157C19.875 2.01485 20.7238 2.01485 21.4104 2.07002C22.1155 2.12668 22.727 2.24583 23.2916 2.52792C24.234 2.99883 24.9981 3.76295 25.469 4.7054C25.7511 5.26996 25.8703 5.88148 25.9269 6.58656C25.9821 7.27316 25.9821 8.122 25.9821 9.18121L25.9821 19.9572C25.9779 22.6383 23.8055 24.8107 21.1245 24.8149L12.7375 24.8149C10.3597 24.8149 8.43209 22.8873 8.43209 20.5095V9.18121C8.43209 8.122 8.43208 7.27316 8.48725 6.58656C8.54391 5.88148 8.66306 5.26996 8.94515 4.7054C9.41606 3.76295 10.1802 2.99883 11.1226 2.52792C11.6872 2.24583 12.2987 2.12668 13.0038 2.07002C13.6904 2.01485 14.5392 2.01485 15.5984 2.01486ZM13.148 3.86424C12.5522 3.91212 12.1995 4.00205 11.9272 4.1381C11.3334 4.43479 10.852 4.9162 10.5553 5.50996C10.4193 5.78225 10.3293 6.13497 10.2815 6.73075C10.2328 7.33676 10.2321 8.11322 10.2321 9.21946V18.3781L10.7583 17.8661C10.8168 17.8092 10.8652 17.7621 10.9111 17.7211C12.0051 16.7432 13.6591 16.7432 14.7531 17.7211C14.799 17.7621 14.8474 17.8091 14.9059 17.8661L14.918 17.8779C14.9951 17.9529 15.0138 17.9708 15.0273 17.9829C15.4382 18.3501 16.0594 18.3501 16.4702 17.9829C16.4837 17.9708 16.5024 17.9529 16.5795 17.8779L17.614 16.8713C17.9748 16.5203 18.2827 16.2207 18.5558 15.9941C18.8432 15.7558 19.1484 15.5492 19.5185 15.428C20.1012 15.2372 20.7296 15.2372 21.3123 15.428C21.6825 15.5492 21.9877 15.7558 22.275 15.9941C22.5481 16.2207 22.8561 16.5203 23.2168 16.8713L24.1821 17.8105V9.21947C24.1821 8.11322 24.1814 7.33676 24.1327 6.73075C24.0848 6.13497 23.9949 5.78225 23.8589 5.50996C23.5622 4.9162 23.0808 4.43479 22.487 4.1381C22.2147 4.00205 21.862 3.91212 21.2662 3.86424C20.6602 3.81554 19.8837 3.81486 18.7775 3.81486H15.6367C14.5305 3.81486 13.754 3.81554 13.148 3.86424ZM24.162 20.3024L21.9861 18.1853C21.5941 17.8039 21.3374 17.555 21.1259 17.3796C20.9225 17.2109 20.8186 17.1604 20.7523 17.1387C20.5334 17.067 20.2974 17.067 20.0786 17.1387C20.0122 17.1604 19.9084 17.2109 19.705 17.3796C19.4935 17.555 19.2367 17.8039 18.8448 18.1853L17.8226 19.1798C17.7641 19.2368 17.7157 19.2839 17.6698 19.3249C16.5758 20.3028 14.9217 20.3028 13.8277 19.3249C13.7818 19.2839 13.7335 19.2368 13.675 19.1798L13.6628 19.168C13.5857 19.093 13.5671 19.0751 13.5536 19.0631C13.1427 18.6958 12.5215 18.6958 12.1106 19.0631C12.0971 19.0751 12.0785 19.093 12.0014 19.168L10.2571 20.8651C10.4298 22.0804 11.4745 23.0149 12.7375 23.0149L21.1217 23.0149C22.6932 23.0124 23.9873 21.8276 24.162 20.3024ZM2.01542 7.53423C2.01542 5.42635 3.72421 3.71757 5.83209 3.71757C6.32915 3.71757 6.73209 4.12051 6.73209 4.61757C6.73209 5.11462 6.32915 5.51757 5.83209 5.51757C4.71832 5.51757 3.81542 6.42046 3.81542 7.53423V20.4306C3.81542 21.5444 4.71832 22.4473 5.83209 22.4473C6.32915 22.4473 6.73209 22.8502 6.73209 23.3473C6.73209 23.8444 6.32915 24.2473 5.83209 24.2473C3.72421 24.2473 2.01542 22.5385 2.01542 20.4306V7.53423Z" fill="#007AFF"/>
<path d="M21.5848 8.16722C21.5848 9.13415 20.8011 9.91801 19.8343 9.91801C18.8676 9.91801 18.0838 9.13415 18.0838 8.16722C18.0838 7.20029 18.8676 6.41644 19.8343 6.41644C20.8011 6.41644 21.5848 7.20029 21.5848 8.16722Z" fill="#007AFF"/>
</svg>

<svg xmlns="http://www.w3.org/2000/svg" width="28" height="28" fill="none"><path fill="currentColor" fill-rule="evenodd" d="M15.598 2.015h3.218c1.059 0 1.908 0 2.594.055.706.057 1.317.176 1.882.458a4.87 4.87 0 0 1 2.177 2.177c.282.565.401 1.176.458 1.882.055.686.055 1.535.055 2.594v10.776a4.865 4.865 0 0 1-4.857 4.858h-8.387a4.305 4.305 0 0 1-4.306-4.306V9.182c0-1.059 0-1.908.055-2.594.057-.706.176-1.317.458-1.882a4.87 4.87 0 0 1 2.178-2.177c.564-.282 1.176-.401 1.88-.458.687-.055 1.536-.055 2.595-.055m-2.45 1.85c-.596.047-.948.137-1.22.273a3.07 3.07 0 0 0-1.373 1.372c-.136.272-.226.625-.274 1.22-.048.607-.049 1.383-.049 2.49v9.158l.526-.512c.059-.057.107-.104.153-.145a2.88 2.88 0 0 1 3.995.145l.012.012c.077.075.096.093.11.105.41.367 1.031.367 1.442 0l.11-.105 1.034-1.007c.36-.35.669-.65.942-.877.287-.238.592-.445.962-.566a2.9 2.9 0 0 1 1.794 0c.37.121.676.328.963.566.273.227.581.526.942.877l.965.94V9.219c0-1.106 0-1.882-.05-2.488-.047-.596-.137-.949-.273-1.221a3.07 3.07 0 0 0-1.372-1.372c-.272-.136-.625-.226-1.22-.274-.607-.048-1.383-.05-2.49-.05h-3.14c-1.107 0-1.883.002-2.489.05m11.014 16.437-2.176-2.117c-.392-.381-.649-.63-.86-.805-.204-.17-.307-.22-.374-.241a1.1 1.1 0 0 0-.673 0c-.067.021-.17.072-.374.24-.211.176-.468.425-.86.806l-1.022.995a2.883 2.883 0 0 1-3.995.145q-.068-.06-.153-.145l-.012-.012-.11-.105a1.083 1.083 0 0 0-1.442 0c-.014.012-.033.03-.11.105l-1.744 1.697a2.506 2.506 0 0 0 2.48 2.15h8.385a3.066 3.066 0 0 0 3.04-2.713M2.015 7.534a3.817 3.817 0 0 1 3.817-3.816.9.9 0 1 1 0 1.8 2.017 2.017 0 0 0-2.017 2.016v12.897c0 1.113.903 2.016 2.017 2.016a.9.9 0 1 1 0 1.8 3.817 3.817 0 0 1-3.817-3.816z" clip-rule="evenodd"/><path fill="currentColor" d="M21.585 8.167a1.75 1.75 0 1 1-3.501 0 1.75 1.75 0 0 1 3.5 0"/></svg>
